public/avatar/hat/288.svg

<svg xmlns:xlink="http://www.w3.org/1999/xlink" height="92.9" width="100.7" xmlns="http://www.w3.org/2000/svg"><g transform="translate(38.65 49.75)"><use height="23.4" transform="translate(-16.95 -.1)" width="32.95" xlink:href="#a"/><use height="29.9" transform="translate(-20.25 -6.9)" width="39" xlink:href="#b"/><use height="28.6" transform="translate(-19.65 -5.75)" width="37.45" xlink:href="#c"/><use height="21.3" transform="translate(-19.65 -2)" width="37.35" xlink:href="#d"/><use height="28.3" transform="translate(-19.4 -5.45)" width="37.2" xlink:href="#e"/><use height="14.45" transform="translate(-3.8 -1.4)" width="6" xlink:href="#f"/><use height="21.3" transform="translate(-16.55 -5.7)" width="29.95" xlink:href="#g"/></g><defs><path d="m4.85 11.2.35 1.5 1.2 2.85 1.75 2.8q0 .5-.7.55-.75.05-4-2.5t-4.6-4.6l-1-1.1-2.1-2.85Q-5.3 5.65-5.3 2.8q0-2.9 1.25-2.9 1.45 0 1.5 1.25l.25 3 1.6 2.9L2 6.8q1.4 0 2.3 2.85l.55 1.55M7 6.25q.4 0 .8.85l1.15.45L10.1 9.1q1.65 2 2.8 2.8 1.1.75 2.1 2.95 1 2.1 1 3.5Q16 19 14.7 20q-1.3.95-1.9.95l-.5-.55.6-1v-1.1q0-1.7-.95-3.9-.45 1.45-1.2 1.45l-.9-2.25-1.05-2.35-1.1-2.3-1.25-2.2q0-.5.55-.5m6.95 13.05-.05-.05v.05h.05m-24.3-11.75q.45 0 .45 1.9v3.9l.1.95q0 .85-.65.85-.35 0-.95-1.35l-.75 1.1-.05.1q-.35.85-.35 2.25l.15 2.75 1 2.45q0 .65-.5.65-.6 0-2.6-2.35h-.05q0 .4-.35 1.4-.45 1.15-.85 1.15-.8 0-1.2-3.1 0-2.35 1.45-3.8l1.55-1.75.35-.25v-.05l.75-1.5.25-.8q.2-.5.7-.5h.05v.05l.2-.8.2-1.2.35-1.15q.3-.9.75-.9" fill="#404040" fill-rule="evenodd" transform="translate(16.95 .1)" id="a"/><path d="m3.95 28.8-.15.55-.4-.45q-1.75-.9-2.15-4.75-.5-1.5-.65-3.8l.05-.75q-.6-1.25-.65-3.05-.15-5 5.15-10.2L7 4.85q2.35-1.65 4.7-2.1l1.95-1.35 5.55-.25 2.85-1.1q3.9-.5 9 2.7L34.8 6.2q3.65 4.75 3.25 11.3 2.4 10-1.35 12.15l-.65.25.25-.8-.5-3.65-1.4 1.45-1.5.7.1-.2.2-.45q.55-1.6.05-5.1l-.15-.3-1.05-1.25-.05.2-.4 1.1-.3.5-3.3-6.75-.75-.9-3-2.2.25 1.5-.35 3.5.75 2.8q1.45 4.35 3.35 6l.1.1-.45-.35-.1-.1q-3.5-2.45-6.7-5.55-5.45-5.3-5.55-8.9v.55l-.05-.8-.65.3-.05.05-1.15.5-.2.1-.45.3-1.15 1.05q-2.7 3-1.75 8.35l-.5-1-.05-.2-.1-.15-.5-.95-.1.05H8.8l-1.25 3.3q-.95 3.95.75 7.05-2.5-1.95-3.05-4.8l-.45 1.6-.35 2.8-.2-.35-.3-.25v.05m-2.8-8.3L1 20.25l.15.8v-.55" fill="#27202b" fill-rule="evenodd" id="h"/><path d="m32.65 10.25.45.4 1.7 2.4 1.35 3.35.35.25q-4.3-11.6-12.25-13.6l-5.05-.2-2.1.55q7.65-.55 11.55 2.55 2 1.55 2.4 3.2.85.4 1.6 1.1m-2.05-7.2q3.4 2.4 4.95 7 .6 1.7.85 3.35.4 2.05.1 3.05l.1.2.65.4.1 3.35.1 2.65q-.2 3.05-1.65 5.55l-.05.05-.55-4.15-1.4 1.45q-.7.5-1.5.7l.1-.2.2-.45q.55-1.6.05-5.1l-.15-.3-1.05-1.25-.05.2-.4 1.1-.3.5-3.3-6.75-.75-.9-3-2.2-.2-1.45h-.4v.05l-.05.15.25 1 .15 1.2.1.9v.6l-.1.95-.05.4.95 4q1.45 4.35 3.35 6l.1.1-.45-.35-.1-.1q-3.5-2.45-6.7-5.55-5.45-5.3-5.55-8.9V10q.15-3.95 1.6-5.05l.05-.05q.15-.15.4-.2h-.25q-1.6.3-1.85 3.15v.35l-.05.25.05 1.6-.65.3-.05.05-1.15.5-.2.1-.45.3q-.6.45-1.15 1.05-2.7 3-1.75 8.35l-.5-1-.05-.2-.1-.15-.5-.95-.1.05H8.2l-1.25 3.3Q6 25.7 7.7 28.8 5.2 26.85 4.65 24l-.45 1.6-.35 2.8-.2-.35-.3-.25v.05l-.05-.1q-.65-.65-1.1-2.05l-.6-2.5-.4-4.05q-.9-1.4-.7-3.85l-.25 1.5q.1-1.9.7-3.85l.15-.7.2-.35.55-1.35q1.9-4.25 5.4-6.2 1.9-1.2 4.15-1.5l-.05.05.8.15-.95-.1 3 .45-1.7-1 .2-.15-.35.05q1.1-1.1 6.15-1.3l-.25 1.2.05-.15.4-.6L21.1.2l4.5.3q2.4.35 5 2.55M23 5.25q3 1.4 5.4 3.35 7.6 6.3 5.95 16.2l.7-.9-.05-.1.45-2.65q-.55-5.55-2.15-7.65-3.8-5.5-5.7-6.05-4.1-3.5-7.15-3.15l2.55.95m-9.8 1.9q-1.75.5-3.5 2l-.7.6Q5.7 13 5.25 18.35 5.15 19.6 5.2 21q.4-2.9 1.55-6.05 1.05-2.8 2.45-4.6l.8-.95q1.45-1.5 3.25-2.1l-.05-.15m-6.15 1.3Q5.75 9 4.2 11.9l-1.25 2.8q-.75.75-.75 3.7l-.3 2.4-.05 2.7.7 1.4v-.75l-.05-.75q-.1-1.6.05-3.1.55-7.4 6-12.45 3.45-3.2 7.05-4.4-2.3 0-5.65 2.5l-2.9 2.5M.65 23.2q-.5-1.5-.65-3.8l.05-2.3.35 2.2.15.8L2 25.25q-.85-.6-1.35-2.05" fill="#ede9f3" fill-rule="evenodd" transform="translate(0 -.2)" id="i"/><path d="m37.25 13.1.1 3.35v1.75l-1.25-5.75h.05l.35.25h.1l.65.4M23 6.1l-.05-.2q-.75-3.05-3.1-4.75-.8-.65-1.8-1.15 1.4.3 2.45.9 2.75 1.6 2.55 5v.05L23 6.1m12 13.75.45-2.85.15 4.2-.6-1.35M9.5 9.3l-.8 2.45q-.55 2.05-.45 2.75l.05.15-.3-.55.25-1.95q.35-1.65.95-2.45l.3-.4M.05 13.15l.35 2.2.15.8L2 21.3q-.85-.6-1.35-2.05-.5-1.5-.65-3.8l.05-2.3" fill="#4f4f4f" fill-rule="evenodd" id="j"/><path d="m32 9.7-1.05-.95 1.45 1 .45.4 1.7 2.4 1.35 3.35h-.05l1.25 5.75v-.95l.1 1.85q-.2 3.05-1.65 5.55l-.05.05-.05-1.6q1.5-8.05-1.35-13.75-.9-1.75-2.1-3.1m1.2-4.25q1.3 2.1 2.1 4.1.6 1.7.85 3.35l.05.4.05 2.65-.95-2.2Q34.1 3.55 25.5.05L25.35 0q2.4.35 5 2.55l2.85 2.9m-10.45-.7q3 1.4 5.4 3.35 7.6 6.3 5.95 16.2l.7-.9.2.45-.05.15-1.4 1.45-1.35.65.4-.3-.55.35.1-.2.2-.45q.75-1.95.05-5.25l-1.2-1.4-.05.2-.4 1.1-.3.5q-1.55-4.5-3.3-6.75l-.75-.9-.2-.2 1.75 1.5q2.1 1.9 2.3 2.6.05-2.45-.3-3.5l-.1-.25q1.9 1.6 3 6.95l-.25-1.65v-.15q-1.15-5.55-5.6-9.85Q24.95 6.5 22.5 5l-2.05-1.05.2.05 2.1.75m0 4.8.25 1 .15 1.2q.15 1.6-.1 2.95l1 3.9q1.45 4.35 3.35 6l-.25-.2h-.05l-.05-.05-.1-.1q-3.5-2.45-6.7-5.55-5.45-5.3-5.55-8.9v-.3l.15-.9.15-.45.3-1.75v-.15q.45-1.15 1-1.8l.05-.05.4-.2q-1.5 2-1.25 5.15v.1q.45 5.65 7.8 10.65-1.15-2.25-1.3-4.35-.3-4.3-.75-5.95L18.65 4l.95.6q2.35 1.7 3.1 4.75l.05.2M23.9 20.5v-.05h-.05l.05.05M18.25.5 18 1.7l.05-.15-.1.4-5.5-.2-.35.05Q13.2.7 18.25.5M13.2 2.8q-2.85.5-5.85 2.25Q1.55 8.5.25 14.8L0 16.3q.1-1.9.7-3.85l.35-1.05.55-1.35Q3.5 5.8 7 3.85q1.75-1 3.95-1.4l2.25.35M3.1 27.35l-.05-.1-.7-1.4-.4-.65.15-.05q-1.5-4.1-.5-8.35.65-2.7 1.85-4.4l-.4 1.05-.35.75q-.75.75-.75 3.7l-.3 2.4L1.6 23l.65 1.25.15.7.25-.15-.35-1.15-.05-.75q.15-2.65 1.15-5.75 1.95-5.85 6.05-8.5l-.7.6Q5.45 12.5 5 17.85q-.4 2-.15 4.05l-.9 3.2-.35 2.8-.75-1.25.2.65.05.05v.05-.05M14.65 7.7l-.05.25-.65 1.95-1.15.5-.2.1q-1.45.8-2.4 2.2l1.45-2.3q1.65-2.3 3-2.7m-5.7 5.45q-.6.8-.95 2.45l-.25 1.95.25.4q-.1-.7.45-2.75-.1 1.25.15 2.7.25 1.35.65 2.3l-.5-1-.05-.2-.1-.15-.5-.95-.1.05h-.05l-1.25 3.3q-.95 3.95.75 7.05-2.35-2.5-2.15-4.65.25-2.05.85-4.4 1.15-4.7 2.8-6.2v.1" fill="#c0bcc7" fill-rule="evenodd" id="k"/><path d="m-2.45-1.4-.05.6.1 4Q-.5 4.75.2 7.4q.7 2.6.45 3.05l1.2 1.6.35.95-.25.05-1.4-1-.7-.6-.05-.05-2.7-3.5q-.9-1.4-.9-3.95-.1-2.6.35-3.75V.1q.05-1.4 1-1.5" fill="#eee" fill-rule="evenodd" transform="translate(3.8 1.4)" id="f"/><path d="M27.6 8.55q-3.15-4.4-10.05-5.2l2.7.2q5.35 1.1 7.35 5M24.65 9.8q4.1 3.65 5.3 9.7-.4-1.65-1.4-3.7-2.55-5.05-7.6-8.15l3.7 2.15m-11.6-1.9q.1-2 .75-3.35-.9 6.8 1.95 10.5-2.85-3.2-2.7-7.15m8.4 3.25-.95-.5-.05-.3q2.5.8 3.7 2.8.75 1.55-.05.15-.55-.85-2.65-2.15m-6.85-8Q11.85 1.8 9.9 2.4l1.05-.4q1.85-.25 3.65 1.15M17.7.3q2.8-1 6.5 1.1-4.6-2.1-7.65-.25L17.7.3M7.1 9.8q-1.3 1.65-2.5 3.9-2.5 4.55-2.25 7.6-.25-1.55.2-3.8.6-2.8 2.25-5.1Q6.3 8.25 10.75 7q-1.55.5-3.9 3l-.1.15.35-.35m2-5.75Q2.2 7.45 0 13.5l.85-2.85q2.55-4.8 8.25-6.6" fill="#fff" fill-rule="evenodd" id="l"/><use height="29.9" width="39" xlink:href="#h" id="b"/><use height="28.6" width="37.45" xlink:href="#i" id="c"/><use height="21.3" width="37.35" xlink:href="#j" id="d"/><use height="28.3" width="37.2" xlink:href="#k" id="e"/><use height="21.3" width="29.95" xlink:href="#l" id="g"/></defs></svg>

<?xml version="1.0" encoding="UTF-8" standalone="no"?>
<svg xmlns:xlink="http://www.w3.org/1999/xlink" height="92.9px" width="100.7px" xmlns="http://www.w3.org/2000/svg">
  <g transform="matrix(1.0, 0.0, 0.0, 1.0, 38.65, 49.75)">
    <use height="23.4" transform="matrix(1.0, 0.0, 0.0, 1.0, -16.95, -0.1)" width="32.95" xlink:href="#shape0"/>
    <use height="29.9" transform="matrix(1.0, 0.0, 0.0, 1.0, -20.25, -6.9)" width="39.0" xlink:href="#sprite0"/>
    <use height="28.6" transform="matrix(1.0, 0.0, 0.0, 1.0, -19.65, -5.75)" width="37.45" xlink:href="#sprite1"/>
    <use height="21.3" transform="matrix(1.0, 0.0, 0.0, 1.0, -19.65, -2.0)" width="37.35" xlink:href="#sprite2"/>
    <use height="28.3" transform="matrix(1.0, 0.0, 0.0, 1.0, -19.4, -5.45)" width="37.2" xlink:href="#sprite3"/>
    <use height="14.45" transform="matrix(1.0, 0.0, 0.0, 1.0, -3.8, -1.4)" width="6.0" xlink:href="#shape5"/>
    <use height="21.3" transform="matrix(1.0, 0.0, 0.0, 1.0, -16.55, -5.7)" width="29.95" xlink:href="#sprite4"/>
  </g>
  <defs>
    <g id="shape0" transform="matrix(1.0, 0.0, 0.0, 1.0, 16.95, 0.1)">
      <path d="M4.85 11.2 L5.2 12.7 6.4 15.55 8.15 18.35 Q8.15 18.85 7.45 18.9 6.7 18.95 3.45 16.4 0.2 13.85 -1.15 11.8 L-2.15 10.7 -4.25 7.85 Q-5.3 5.65 -5.3 2.8 -5.3 -0.1 -4.05 -0.1 -2.6 -0.1 -2.55 1.15 L-2.3 4.15 -0.7 7.05 2.0 6.8 Q3.4 6.8 4.3 9.65 L4.85 11.2 M7.0 6.25 Q7.4 6.25 7.8 7.1 L8.95 7.55 10.1 9.1 Q11.75 11.1 12.9 11.9 14.0 12.65 15.0 14.85 16.0 16.95 16.0 18.35 16.0 19.0 14.7 20.0 13.4 20.95 12.8 20.95 L12.3 20.4 12.9 19.4 12.9 18.3 Q12.9 16.6 11.95 14.4 11.5 15.85 10.75 15.85 L9.85 13.6 8.8 11.25 7.7 8.95 6.45 6.75 Q6.45 6.25 7.0 6.25 M13.95 19.3 L13.9 19.25 13.9 19.3 13.95 19.3 M-10.35 7.55 Q-9.9 7.55 -9.9 9.45 L-9.9 13.35 -9.8 14.3 Q-9.8 15.15 -10.45 15.15 -10.8 15.15 -11.4 13.8 L-12.15 14.9 -12.2 15.0 Q-12.55 15.85 -12.55 17.25 L-12.4 20.0 -11.4 22.45 Q-11.4 23.1 -11.9 23.1 -12.5 23.1 -14.5 20.75 L-14.55 20.75 Q-14.55 21.15 -14.9 22.15 -15.35 23.3 -15.75 23.3 -16.55 23.3 -16.95 20.2 -16.95 17.85 -15.5 16.4 L-13.95 14.65 -13.6 14.4 -13.6 14.35 -12.85 12.85 -12.6 12.05 Q-12.4 11.55 -11.9 11.55 L-11.85 11.55 -11.85 11.6 -11.65 10.8 -11.45 9.6 -11.1 8.45 Q-10.8 7.55 -10.35 7.55" fill="#404040" fill-rule="evenodd" stroke="none"/>
    </g>
    <g id="sprite0" transform="matrix(1.0, 0.0, 0.0, 1.0, 0.0, 0.0)">
      <use height="29.9" transform="matrix(1.0, 0.0, 0.0, 1.0, 0.0, 0.0)" width="39.0" xlink:href="#shape1"/>
    </g>
    <g id="shape1" transform="matrix(1.0, 0.0, 0.0, 1.0, 0.0, 0.0)">
      <path d="M3.95 28.8 L3.8 29.35 3.4 28.9 Q1.65 28.0 1.25 24.15 0.75 22.65 0.6 20.35 L0.65 19.6 Q0.05 18.35 0.0 16.55 -0.15 11.55 5.15 6.35 L7.0 4.85 Q9.35 3.2 11.7 2.75 L13.65 1.4 19.2 1.15 22.05 0.05 Q25.95 -0.45 31.05 2.75 L34.8 6.2 Q38.45 10.95 38.05 17.5 40.45 27.5 36.7 29.65 L36.05 29.9 36.3 29.1 35.8 25.45 34.4 26.9 32.9 27.6 33.0 27.4 33.2 26.95 Q33.75 25.35 33.25 21.85 L33.1 21.55 32.05 20.3 32.0 20.5 31.6 21.6 31.3 22.1 28.0 15.35 27.25 14.45 24.25 12.25 24.5 13.75 24.15 17.25 24.9 20.05 Q26.35 24.4 28.25 26.05 L28.35 26.15 27.9 25.8 27.8 25.7 Q24.3 23.25 21.1 20.15 15.65 14.85 15.55 11.25 L15.55 11.8 15.5 11.0 14.85 11.3 14.8 11.35 13.65 11.85 13.45 11.95 13.0 12.25 11.85 13.3 Q9.15 16.3 10.1 21.65 L9.6 20.65 9.55 20.45 9.45 20.3 8.95 19.35 8.85 19.4 8.8 19.4 7.55 22.7 Q6.6 26.65 8.3 29.75 5.8 27.8 5.25 24.95 L4.8 26.55 4.45 29.35 4.25 29.0 3.95 28.75 3.95 28.8 M1.15 20.5 L1.0 20.25 1.15 21.05 1.15 20.5" fill="#27202b" fill-rule="evenodd" stroke="none"/>
    </g>
    <g id="sprite1" transform="matrix(1.0, 0.0, 0.0, 1.0, 0.0, -0.2)">
      <use height="28.6" transform="matrix(1.0, 0.0, 0.0, 1.0, 0.0, 0.2)" width="37.45" xlink:href="#shape2"/>
    </g>
    <g id="shape2" transform="matrix(1.0, 0.0, 0.0, 1.0, 0.0, -0.2)">
      <path d="M32.65 10.25 L33.1 10.65 34.8 13.05 36.15 16.4 36.5 16.65 Q32.2 5.05 24.25 3.05 L19.2 2.85 17.1 3.4 Q24.75 2.85 28.65 5.95 30.65 7.5 31.05 9.15 31.9 9.55 32.65 10.25 M30.6 3.05 Q34.0 5.45 35.55 10.05 36.15 11.75 36.4 13.4 36.8 15.45 36.5 16.45 L36.6 16.65 37.25 17.05 37.35 20.4 37.45 23.05 Q37.25 26.1 35.8 28.6 L35.75 28.65 35.2 24.5 33.8 25.95 Q33.1 26.45 32.3 26.65 L32.4 26.45 32.6 26.0 Q33.15 24.4 32.65 20.9 L32.5 20.6 31.45 19.35 31.4 19.55 31.0 20.65 30.7 21.15 27.4 14.4 26.65 13.5 23.65 11.3 23.45 9.85 23.05 9.85 23.05 9.9 23.0 10.05 23.25 11.05 23.4 12.25 23.5 13.15 23.5 13.75 23.4 14.7 23.35 15.1 24.3 19.1 Q25.75 23.45 27.65 25.1 L27.75 25.2 27.3 24.85 27.2 24.75 Q23.7 22.3 20.5 19.2 15.05 13.9 14.95 10.3 L14.95 10.25 14.95 10.05 14.95 10.0 Q15.1 6.05 16.55 4.95 L16.6 4.9 Q16.75 4.75 17.0 4.7 L16.75 4.7 Q15.15 5.0 14.9 7.85 L14.9 8.2 14.85 8.45 14.9 10.05 14.25 10.35 14.2 10.4 13.05 10.9 12.85 11.0 12.4 11.3 Q11.8 11.75 11.25 12.35 8.55 15.35 9.5 20.7 L9.0 19.7 8.95 19.5 8.85 19.35 8.35 18.4 8.25 18.45 8.2 18.45 6.95 21.75 Q6.0 25.7 7.7 28.8 5.2 26.85 4.65 24.0 L4.2 25.6 3.85 28.4 3.65 28.05 3.35 27.8 3.35 27.85 3.3 27.75 Q2.65 27.1 2.2 25.7 L1.6 23.2 1.2 19.15 Q0.3 17.75 0.5 15.3 L0.25 16.8 Q0.35 14.9 0.95 12.95 L1.1 12.25 1.3 11.9 1.85 10.55 Q3.75 6.3 7.25 4.35 9.15 3.15 11.4 2.85 L11.35 2.9 12.15 3.05 11.2 2.95 14.2 3.4 12.5 2.4 12.7 2.25 12.35 2.3 Q13.45 1.2 18.5 1.0 L18.25 2.2 18.3 2.05 18.7 1.45 21.1 0.2 25.6 0.5 Q28.0 0.85 30.6 3.05 M23.0 5.25 Q26.0 6.65 28.4 8.6 36.0 14.9 34.35 24.8 L35.05 23.9 35.0 23.8 35.45 21.15 Q34.9 15.6 33.3 13.5 29.5 8.0 27.6 7.45 23.5 3.95 20.45 4.3 L23.0 5.25 M13.2 7.15 Q11.45 7.65 9.7 9.15 L9.0 9.75 Q5.7 13.0 5.25 18.35 5.15 19.6 5.2 21.0 5.6 18.1 6.75 14.95 7.8 12.15 9.2 10.35 L10.0 9.4 Q11.45 7.9 13.25 7.3 L13.2 7.15 M7.05 8.45 Q5.75 9.0 4.2 11.9 L2.95 14.7 Q2.2 15.45 2.2 18.4 L1.9 20.8 1.85 23.5 2.55 24.9 2.55 24.4 2.55 24.15 2.5 23.4 Q2.4 21.8 2.55 20.3 3.1 12.9 8.55 7.85 12.0 4.65 15.6 3.45 13.3 3.45 9.95 5.95 L7.05 8.45 M0.65 23.2 Q0.15 21.7 0.0 19.4 L0.05 17.1 0.4 19.3 0.55 20.1 2.0 25.25 Q1.15 24.65 0.65 23.2" fill="#ede9f3" fill-rule="evenodd" stroke="none"/>
    </g>
    <g id="sprite2" transform="matrix(1.0, 0.0, 0.0, 1.0, 0.0, 0.0)">
      <use height="21.3" transform="matrix(1.0, 0.0, 0.0, 1.0, 0.0, 0.0)" width="37.35" xlink:href="#shape3"/>
    </g>
    <g id="shape3" transform="matrix(1.0, 0.0, 0.0, 1.0, 0.0, 0.0)">
      <path d="M37.25 13.1 L37.35 16.45 37.35 17.25 37.35 18.2 36.1 12.45 36.15 12.45 36.5 12.7 36.6 12.7 37.25 13.1 M23.0 6.1 L22.95 5.9 Q22.2 2.85 19.85 1.15 19.05 0.5 18.05 0.0 19.45 0.3 20.5 0.9 23.25 2.5 23.05 5.9 L23.05 5.95 23.0 6.1 M35.0 19.85 L35.45 17.0 35.6 21.2 35.0 19.85 M9.5 9.3 L8.7 11.75 Q8.15 13.8 8.25 14.5 L8.3 14.65 8.0 14.1 8.25 12.15 Q8.6 10.5 9.2 9.7 L9.5 9.3 M0.05 13.15 L0.4 15.35 0.55 16.15 2.0 21.3 Q1.15 20.7 0.65 19.25 0.15 17.75 0.0 15.45 L0.05 13.15" fill="#4f4f4f" fill-rule="evenodd" stroke="none"/>
    </g>
    <g id="sprite3" transform="matrix(1.0, 0.0, 0.0, 1.0, 0.0, 0.0)">
      <use height="28.3" transform="matrix(1.0, 0.0, 0.0, 1.0, 0.0, 0.0)" width="37.2" xlink:href="#shape4"/>
    </g>
    <g id="shape4" transform="matrix(1.0, 0.0, 0.0, 1.0, 0.0, 0.0)">
      <path d="M32.0 9.7 L30.95 8.75 32.4 9.75 32.85 10.15 34.55 12.55 35.9 15.9 35.85 15.9 37.1 21.65 37.1 20.7 37.2 22.55 Q37.0 25.6 35.55 28.1 L35.5 28.15 35.45 26.55 Q36.95 18.5 34.1 12.8 33.2 11.05 32.0 9.7 M33.2 5.45 Q34.5 7.55 35.3 9.55 35.9 11.25 36.15 12.9 L36.2 13.3 36.25 15.95 35.3 13.75 Q34.1 3.55 25.5 0.05 L25.35 0.0 Q27.75 0.35 30.35 2.55 L33.2 5.45 M22.75 4.75 Q25.75 6.15 28.15 8.1 35.75 14.4 34.1 24.3 L34.8 23.4 35.0 23.85 34.95 24.0 33.55 25.45 32.2 26.1 32.6 25.8 32.05 26.15 32.15 25.95 32.35 25.5 Q33.1 23.55 32.4 20.25 L31.2 18.85 31.15 19.05 30.75 20.15 30.45 20.65 Q28.9 16.15 27.15 13.9 L26.4 13.0 26.2 12.8 27.95 14.3 Q30.05 16.2 30.25 16.9 30.3 14.45 29.95 13.4 L29.85 13.15 Q31.75 14.75 32.85 20.1 L32.6 18.45 32.6 18.3 Q31.45 12.75 27.0 8.45 24.95 6.5 22.5 5.0 L20.45 3.95 20.65 4.0 22.75 4.75 M22.75 9.55 L23.0 10.55 23.15 11.75 Q23.3 13.35 23.05 14.7 L24.05 18.6 Q25.5 22.95 27.4 24.6 L27.15 24.4 27.1 24.4 27.05 24.35 26.95 24.25 Q23.45 21.8 20.25 18.7 14.8 13.4 14.7 9.8 L14.7 9.75 14.7 9.55 14.7 9.5 14.85 8.6 15.0 8.15 15.3 6.4 15.3 6.25 Q15.75 5.1 16.3 4.45 L16.35 4.4 16.75 4.2 Q15.25 6.2 15.5 9.35 L15.5 9.45 Q15.95 15.1 23.3 20.1 22.15 17.85 22.0 15.75 21.7 11.45 21.25 9.8 L18.65 4.0 19.6 4.6 Q21.95 6.3 22.7 9.35 L22.75 9.55 M23.9 20.5 L23.9 20.45 23.85 20.45 23.9 20.5 M18.25 0.5 L18.0 1.7 18.05 1.55 17.95 1.95 12.45 1.75 12.1 1.8 Q13.2 0.7 18.25 0.5 M13.2 2.8 Q10.35 3.3 7.35 5.05 1.55 8.5 0.25 14.8 L0.0 16.3 Q0.1 14.4 0.7 12.45 L1.05 11.4 1.6 10.05 Q3.5 5.8 7.0 3.85 8.75 2.85 10.95 2.45 L13.2 2.8 M3.1 27.35 L3.05 27.25 2.35 25.85 1.95 25.2 2.1 25.15 Q0.6 21.05 1.6 16.8 2.25 14.1 3.45 12.4 L3.05 13.45 2.7 14.2 Q1.95 14.95 1.95 17.9 L1.65 20.3 1.6 23.0 2.25 24.25 2.4 24.95 2.65 24.8 2.3 23.65 2.25 22.9 Q2.4 20.25 3.4 17.15 5.35 11.3 9.45 8.65 L8.75 9.25 Q5.45 12.5 5.0 17.85 4.6 19.85 4.85 21.9 L3.95 25.1 3.6 27.9 2.85 26.65 3.05 27.3 3.1 27.35 3.1 27.4 3.1 27.35 M14.65 7.7 L14.6 7.95 13.95 9.9 12.8 10.4 12.6 10.5 Q11.15 11.3 10.2 12.7 L11.65 10.4 Q13.3 8.1 14.65 7.7 M8.95 13.15 Q8.35 13.95 8.0 15.6 L7.75 17.55 8.0 17.95 Q7.9 17.25 8.45 15.2 8.35 16.45 8.6 17.9 8.85 19.25 9.25 20.2 L8.75 19.2 8.7 19.0 8.6 18.85 8.1 17.9 8.0 17.95 7.95 17.95 6.7 21.25 Q5.75 25.2 7.45 28.3 5.1 25.8 5.3 23.65 5.55 21.6 6.15 19.25 7.3 14.55 8.95 13.05 L8.95 13.15" fill="#c0bcc7" fill-rule="evenodd" stroke="none"/>
    </g>
    <g id="shape5" transform="matrix(1.0, 0.0, 0.0, 1.0, 3.8, 1.4)">
      <path d="M-2.45 -1.4 L-2.5 -0.8 -2.4 3.2 Q-0.5 4.75 0.2 7.4 0.9 10.0 0.65 10.45 L1.85 12.05 2.2 13.0 1.95 13.05 0.55 12.05 -0.15 11.45 -0.2 11.4 -2.9 7.9 Q-3.8 6.5 -3.8 3.95 -3.9 1.35 -3.45 0.2 L-3.45 0.1 Q-3.4 -1.3 -2.45 -1.4" fill="#eeeeee" fill-rule="evenodd" stroke="none"/>
    </g>
    <g id="sprite4" transform="matrix(1.0, 0.0, 0.0, 1.0, 0.0, 0.0)">
      <use height="21.3" transform="matrix(1.0, 0.0, 0.0, 1.0, 0.0, 0.0)" width="29.95" xlink:href="#shape6"/>
    </g>
    <g id="shape6" transform="matrix(1.0, 0.0, 0.0, 1.0, 0.0, 0.0)">
      <path d="M27.6 8.55 Q24.45 4.15 17.55 3.35 L20.25 3.55 Q25.6 4.65 27.6 8.55 M24.65 9.8 Q28.75 13.45 29.95 19.5 29.55 17.85 28.55 15.8 26.0 10.75 20.95 7.65 L24.65 9.8 M13.05 7.9 Q13.15 5.9 13.8 4.55 12.9 11.35 15.75 15.05 12.9 11.85 13.05 7.9 M21.45 11.15 L20.5 10.65 20.45 10.35 Q22.95 11.15 24.15 13.15 24.9 14.7 24.1 13.3 23.55 12.45 21.45 11.15 M14.6 3.15 Q11.85 1.8 9.9 2.4 L10.95 2.0 Q12.8 1.75 14.6 3.15 M17.7 0.3 Q20.5 -0.7 24.2 1.4 19.6 -0.7 16.55 1.15 L17.7 0.3 M7.1 9.8 Q5.8 11.45 4.6 13.7 2.1 18.25 2.35 21.3 2.1 19.75 2.55 17.5 3.15 14.7 4.8 12.4 6.3 8.25 10.75 7.0 9.2 7.5 6.85 10.0 L6.75 10.15 7.1 9.8 M9.1 4.05 Q2.2 7.45 0.0 13.5 L0.85 10.65 Q3.4 5.85 9.1 4.05" fill="#ffffff" fill-rule="evenodd" stroke="none"/>
    </g>
  </defs>
</svg>
